packages/icons/src/exclamation.svg

<svg xmlns="http://www.w3.org/2000/svg" width="24" height="24" fill="none" viewBox="0 0 24 24">
  <path fill="#000" d="M11 16h2v2h-2v-2Zm0-10h2v8h-2V6Z"/>
</svg>

<svg width="24" height="24" viewBox="0 0 24 24" fill="none" xmlns="http://www.w3.org/2000/svg">
<path d="M11 16H13V18H11V16ZM11 6H13V14H11V6Z" fill="black"/>
</svg>
